X:18
T:My Sheep I Neglected
T:My Apron Dearie
C:arr. Carlo Minasi
M:3/4
L:1/8
B:Chappell's One Hundred Scotch Melodies
B:Arranged for the Concertina by Carlo Minasi
Q:"Andantino  "1/4=140
Z:Peter Dunk 2012
K:C
!p!([GE][AF])|([c3E3] [dF][eG][dF])|(c2G2A2) &E4 F2|\
([_B3] dcB) &[F3D3] z [G2E2]|(_B2A2) [GE][AF] &[F4C4] x2|\
([c2E2] [gcE]f[eBF]d)|([c2E2]G2[A2F2])|\
(c>Bcdef) &E3 Gcd|[g4e4C4] G2|
%
([c2E2] g[fA][eG][dF])|([c2E2]G2 [A2F2])|\
([_B3] dcB) &[F3D3] z [G2E2]|(_B2A2) (cA) &[F4C4] x2|\
(G2E2) (F>A)|G4 ([ec][fd])|\
([g3e3] [fA][eG][dF])| [c4E4]||
%
([ec][fd])|([g2e2] [fA][eG][dF][cE])|[f4A4] ([fA][_ec])|\
[d2_B2] (Bcd[_eB])|[f4A4] (ef)|\
g2 (fedc)|([fcA]g/a/ [g3e3c3] a)|\
([g2e2c2] fe [fcA]g/a/)|([g4e4c4]a2)|
%
(g2e2) (cd/e/)|([f3A3] g  a2)|\
([A2F2D2]defd)|([c2G2E2][B2G2D2]) (cA)|\
(G2E2) (FA)|G4 (e>f)|\
([g3c3E3] [fdF][ecG][dBGF])|[c4G4E4]||

